X:247
T:John Henry
C:Traditional - Arr. Tim O'Brien
N:
R:bluegrass
L:1/8
Q:1/4=240
M:4/4
K:G
z8 | z2 dd dd ed | {f}"G"gg gg g^a bg | gg gg gd dd | ed dd cd ^AB | G2 GG Bd ef | 
[gd][gd] [gd][gd] [gd][gd] [gd][gd] | bg gg =fe dB | "D"[fd][fd] [fd][fd] [fd][fd] [fd][fe] | 
[f2d2] [fd][fd] [f2d2] e2 | "G"[f^c][gd] [gd][gd] [g2d2] [g2d2] | [bd][gd] [gd][gd] [g2d2] [gd][gd] | 
=fe dc BG DF | [BG][BG] [BG][BG] GA Bc | [f^c][gd] [gd][gd] [gd][gd] =cd | {^A}BG [BG][BG] DE G2 | 
[f^A][gB] [gB][gB] [gB][gB] [gB][gd] | [f^A][gB] [gB][gB] [gB][gB] [gB][gB] | 
[f^c][gd] [gd][gd] [gd][gd] =cd | "D"^AB AB =AG ED | "G"[BG][BG] [BG][BG] (3E=FE DB, | 
[D2G,2] [DG,][DG,] [D4G,4] | 


